icons/svg/google.svg

<svg width="24" height="24" viewBox="0 0 24 24" fill="none" xmlns="http://www.w3.org/2000/svg">
<path d="M13.365 2.82915C15.1185 3.06001 16.7633 3.78785 18.1089 4.91871C18.4471 5.20298 18.4451 5.71254 18.1326 6.02496L16.5169 7.6407C16.2045 7.95312 15.7009 7.94741 15.3455 7.68487C14.6182 7.14753 13.763 6.80007 12.8579 6.68091C11.687 6.52676 10.4979 6.76328 9.4751 7.35379C8.4523 7.9443 7.65294 8.8558 7.20098 9.94692C6.74903 11.038 6.66973 12.2478 6.9754 13.3886C7.28108 14.5294 7.95463 15.5374 8.89159 16.2564C9.82856 16.9753 10.9766 17.365 12.1576 17.365C13.3386 17.365 14.4866 16.9753 15.4236 16.2564C16.0751 15.7565 16.5992 15.1168 16.9608 14.39H13.0513C12.6095 14.39 12.2513 14.0318 12.2513 13.59V11.3C12.2513 10.8582 12.6095 10.5 13.0513 10.5H20.5436C20.8605 10.5 21.1546 10.6862 21.2255 10.9952C21.5379 12.3572 21.0998 14.2414 21.067 14.3788C21.0657 14.3843 21.0644 14.3895 21.0629 14.395C20.5349 16.3585 19.4018 18.1007 17.7886 19.3385C16.1732 20.5781 14.1938 21.25 12.1576 21.25C10.1214 21.25 8.14201 20.5781 6.52655 19.3385C4.91109 18.0989 3.7498 16.3609 3.22278 14.3941C2.69576 12.4272 2.83247 10.3414 3.61171 8.46019C4.39095 6.57895 5.76916 5.0074 7.5326 3.98928C9.29603 2.97116 11.3461 2.56337 13.365 2.82915Z" stroke="currentColor" stroke-width="1.5" stroke-linecap="round" stroke-linejoin="round"/>
</svg>

<svg xmlns="http://www.w3.org/2000/svg" width="24" height="24" fill="none" viewBox="0 0 24 24"><path stroke="currentColor" stroke-linecap="round" stroke-linejoin="round" stroke-width="1.5" d="M13.365 2.83a9.25 9.25 0 0 1 4.744 2.089c.338.284.336.794.024 1.106l-1.616 1.616c-.312.312-.816.306-1.171.044a5.365 5.365 0 1 0 1.615 6.705h-3.91a.8.8 0 0 1-.8-.8V11.3a.8.8 0 0 1 .8-.8h7.493c.316 0 .61.186.681.495.313 1.362-.125 3.246-.158 3.384l-.004.016c-.528 1.963-1.661 3.706-3.274 4.944a9.25 9.25 0 1 1-4.424-16.51"/></svg>
